gr/suse.svg

<svg xmlns="http://www.w3.org/2000/svg" viewBox="0 0 24 24" height="1em" width="1em">
  <path fill="#7AC142" fill-rule="evenodd" d="M24,8.28528691 C22.5804639,5.99050902 20.3366451,4.34898102 17.9130991,3.93053502 C15.8761713,3.57729259 12.1607377,3.53965483 10.1932153,7.25267133 C9.3714001,8.80307066 9.42181398,10.8206616 10.3230483,12.5212667 C11.241893,14.2615813 12.8841423,15.3796644 14.8274936,15.5927148 C16.7549611,15.8023122 18.2031515,15.3565292 19.0170248,14.3047439 C19.8367683,13.2419089 19.9887005,11.7961356 19.4075597,10.6179702 C18.7825658,9.35278909 17.8402407,8.68083428 16.531897,8.56964751 C15.5332879,8.48125058 14.7950354,8.8966471 14.5267369,9.32033084 C14.4504255,9.45292624 14.3098881,9.69739901 14.3085069,10.0565116 C14.3085069,11.0067786 15.1759018,11.2667899 15.3523504,11.2785301 C15.4062173,11.2764583 15.6676098,11.2712788 16.0139462,11.1839178 L16.1817623,11.1276338 L16.381346,11.0720404 C17.0132459,10.9570553 17.6199389,11.3299799 17.7970781,11.9439242 C17.8281551,12.0575281 17.8454202,12.1704413 17.8454202,12.2819734 C17.8454202,12.6897733 17.6375493,13.0709851 17.2138655,13.3534409 C17.0315468,13.4677354 16.8644214,13.5319613 16.6890087,13.5868641 C16.1928119,13.7481194 15.7546255,13.8227043 15.3157486,13.8227043 C13.8112742,13.8209778 11.7163359,12.5278274 11.6900931,10.0989835 C11.6759358,8.72779515 12.3627385,7.48091497 13.5747433,6.67705536 C14.9690668,5.75475767 17.377538,5.4419154 19.61474,6.81379436 C22.365404,8.4957532 23.0836291,11.7950997 22.365404,14.0447326 C21.3219058,17.3022977 18.3851249,19.0436482 14.5118889,18.6973118 C11.7667498,18.4531843 9.21705077,17.003958 7.70014558,14.8233852 C7.02715487,13.8575797 6.52888622,12.7805874 6.25920651,11.7042856 C5.63939208,9.24816303 6.26645782,6.6380364 6.73192292,5.48231556 C7.53228768,3.50084082 8.72510717,1.66935452 10.2982381,6.09512441e-14 L1.0005,-1.26217745e-29 C0.44775,-1.26217745e-29 0,0.44775 0,0.99975 L0,23.00025 C0,23.55225 0.44775,24 1.0005,24 L23.00025,24 C23.55225,24 24,23.55225 24,23.00025 L24,8.28528691 Z"/>
</svg>

<svg xmlns="http://www.w3.org/2000/svg" viewBox="0 0 24 24" height="1em" width="1em">
  <path fill="#7AC142" fill-rule="evenodd" d="M24 8.285c-1.42-2.294-3.663-3.936-6.087-4.354-2.037-.354-5.752-.391-7.72 3.322-.822 1.55-.771 3.568.13 5.268.919 1.74 2.561 2.859 4.504 3.072 1.928.21 3.376-.236 4.19-1.288.82-1.063.972-2.509.39-3.687-.624-1.265-1.567-1.937-2.875-2.048-.999-.089-1.737.327-2.005.75a1.417 1.417 0 0 0-.218.737c0 .95.867 1.21 1.043 1.222.054-.003.316-.008.662-.095l.168-.056.2-.056a1.234 1.234 0 0 1 1.463 1.21c0 .408-.207.789-.631 1.071-.182.115-.35.179-.525.234a4.356 4.356 0 0 1-1.373.236c-1.505-.002-3.6-1.295-3.626-3.724-.014-1.371.673-2.618 1.885-3.422 1.394-.922 3.803-1.235 6.04.137 2.75 1.682 3.469 4.981 2.75 7.23-1.043 3.258-3.98 5-7.853 4.653-2.745-.244-5.295-1.693-6.812-3.874a9.615 9.615 0 0 1-1.44-3.119c-.62-2.456.006-5.066.472-6.222.8-1.981 1.993-3.813 3.566-5.482H1.001A1 1 0 0 0 0 1v22a1 1 0 0 0 1 1h22a1 1 0 0 0 1-1V8.285Z"/>
</svg>
